X: 245
T: Miss Murray of Ellibank's Favorite
C: William Shepherd (17??-1812)
R: jig
Q: "Slow"
B: William Shepherd "2nd Collection" 1800 p.24 #5
F: http://imslp.org/wiki/File:PMLP73094-Shepherd_Collections_HMT.pdf
Z: 2012 John Chambers <jc:trillian.mit.edu>
M: 6/8
L: 1/8
K: A
E |!segno!\
A2c B>GE | TF2G A2B | Tc2A d2c | B>cA BGE |\
A2c B>GE | TF2G A2c | Td2f e>cA | E>FG A2 :|
c |:\
e2d Tc>de | f2d B2c | Td2c B>cd | e2c A2c |\
Td2B c2A | B2G E>FG | A2c F>GA |[1 {c}B2G E2e :|[2 B>cA BGE !segno!|]
